images/fractal.svg

<svg height="250" viewBox="0 0 250 250" width="250" xmlns="http://www.w3.org/2000/svg"><g fill="#ff671d"><path d="m190.453125 56.699219s-33.015625 9.117187-45.550781 12.617187c-12.53125 3.5-20.25 30.28125-20.332032 30.515625l-36.667968 10.285157s-13.332032 2.648437-13.332032 16.429687c0 13.085937 13.332032 8.167969 13.332032 8.167969s6.386718-1.667969 18.851562-5.25c12.464844-3.582032 17.800782-29.382813 17.832032-29.617188l65.882812-18.332031s13.335938-2.851563 13.335938-16.667969c.050781-13.066406-13.351563-8.148437-13.351563-8.148437"/><path d="m59.546875 193.296875 48.03125-13.546875c12.417969-3.535156 17.769531-29.382812 17.835937-29.632812l36.664063-10.285157s13.417969-2.648437 13.417969-16.433593c0-13.066407-13.433594-8.433594-13.433594-8.433594s-6.367188 1.667968-18.832031 5.25c-12.46875 3.582031-17.785157 29.667968-17.835938 29.902344l-65.863281 18.332031s-13.335938 2.867187-13.335938 16.667969c-.050781 13.113281 13.351563 8.179687 13.351563 8.179687"/></g></svg>

<svg xmlns="http://www.w3.org/2000/svg" xmlns:xlink="http://www.w3.org/1999/xlink" width="250px" height="250px" viewBox="0 0 250 250" version="1.1">
<g id="surface1">
<path style=" stroke:none;fill-rule:nonzero;fill:rgb(100%,40.392157%,11.372549%);fill-opacity:1;" d="M 190.453125 56.699219 C 190.453125 56.699219 157.4375 65.816406 144.902344 69.316406 C 132.371094 72.816406 124.652344 99.597656 124.570312 99.832031 L 87.902344 110.117188 C 87.902344 110.117188 74.570312 112.765625 74.570312 126.546875 C 74.570312 139.632812 87.902344 134.714844 87.902344 134.714844 C 87.902344 134.714844 94.289062 133.046875 106.753906 129.464844 C 119.21875 125.882812 124.554688 100.082031 124.585938 99.847656 L 190.46875 81.515625 C 190.46875 81.515625 203.804688 78.664062 203.804688 64.847656 C 203.855469 51.78125 190.453125 56.699219 190.453125 56.699219 "/>
<path style=" stroke:none;fill-rule:nonzero;fill:rgb(100%,40.392157%,11.372549%);fill-opacity:1;" d="M 59.546875 193.296875 L 107.578125 179.75 C 119.996094 176.214844 125.347656 150.367188 125.414062 150.117188 L 162.078125 139.832031 C 162.078125 139.832031 175.496094 137.183594 175.496094 123.398438 C 175.496094 110.332031 162.0625 114.964844 162.0625 114.964844 C 162.0625 114.964844 155.695312 116.632812 143.230469 120.214844 C 130.761719 123.796875 125.445312 149.882812 125.394531 150.117188 L 59.53125 168.449219 C 59.53125 168.449219 46.195312 171.316406 46.195312 185.117188 C 46.144531 198.230469 59.546875 193.296875 59.546875 193.296875 "/>
</g>
</svg>
